X:1
T:Title
%%score { ( 1 2 ) | ( 3 4 ) }
L:1/8
M:4/4
K:E
V:1 treble nm="Grand Piano"
V:2 treble 
V:3 bass 
V:4 bass 
V:1
 z4 z2[Q:1/4=100] z F | G3 F E2 c2 | B4 G2 E2 | [DF]3 [DF] [DB]2 [FA]2 |[M:3/4] [EG]6 | %5
[M:1/4] [EG][FA] |[M:4/4] [GB]3 [Ge] [Bd]2 [Ac]2 | [GB]2 [EG]2 [GB]2 G2 | F3 F G2 ^A2 | %9
[M:3/4] [DB]6 |[M:1/4] [DB]2 |[M:4/4] [DB]4 [DF]2 [DB]2 | [EB]4 [EG]2 [Ee]2 | %13
 [Fd]3 [Gc] [FB]2 [E^A]2 | [DB]6 [EG][FA] | [GB]3 [Ge] [Bd]2 [Ac]2 | [GB]2 [B,EG]2 [EGB]2 [G,E]2 | %17
 [A,EF]3 [CFA] [B,EG]2 [A,DF]2 |[M:9/8] [G,B,E]8- [G,B,E] |] %19
V:2
 z4 z2 E2 | x8 | x8 | x8 |[M:3/4] x6 |[M:1/4] x2 |[M:4/4] x8 | x8 | x8 |[M:3/4] x6 |[M:1/4] x2 | %11
[M:4/4] x8 | x8 | x8 | x8 | x8 | x8 | x8 |[M:9/8] x9 |] %19
V:3
 z4 z2 G,A, | [E,B,E]3 [E,A,D] [E,G,]2 [E,A,E]2 | [E,G,E]4 [E,B,E]2 [E,G,]2 | %3
 [B,,B,]3 [B,,B,] [B,,F,]2 [B,,B,]2 |[M:3/4] [E,B,]6 |[M:1/4] [E,B,]2 | %6
[M:4/4] [E,E]3 [E,E] [E,E]2 [E,E]2 | [E,E]2 [E,B,]2 [E,E]2 [E,B,E]2 | %8
 [F,B,D]3 [F,B,D] [F,^A,E]2 [F,CE]2 |[M:3/4] [B,,B,]6 |[M:1/4] [B,,F,]2 | %11
[M:4/4] [B,,F,]4 [B,,B,]2 [B,,A,]2 | [E,G,]4 [E,B,]2 [C,C]2 | [D,B,]3 [E,E] [F,D]2 [F,C]2 | %14
 [B,,B,]6 [E,B,]2 | [E,E]3 [E,E] [E,E]2 [E,E]2 | [E,E]2 E,2 E,2 E,2 | C,3 A,, B,,2 B,,2 | %18
[M:9/8] E,8- E, |] %19
V:4
 z4 z2 E,2 | x8 | x8 | x8 |[M:3/4] x6 |[M:1/4] x2 |[M:4/4] x8 | x8 | x8 |[M:3/4] x6 |[M:1/4] x2 | %11
[M:4/4] x8 | x8 | x8 | x8 | x8 | x8 | x8 |[M:9/8] x9 |] %19

